!!!COM: Joplin, Scott
!!!CDT: 1868/11/24/-1917/04/01/
!!!OTL: Antoinette 
!!!ONB: March and Two-Step
!!!ODT: 1906///
**kern	**kern	**dynam
*staff2	*staff1	*staff1/2
*Ipiano	*Ipiano	*Ipiano
*>[I,A,A1,A,A2,B,B1,B,B2,C,D,D1,D,D2]	*>[I,A,A1,A,A2,B,B1,B,B2,C,D,D1,D,D2]	*>[I,A,A1,A,A2,B,B1,B,B2,C,D,D1,D,D2]
*>norep[I,A,A2,B,B2,C,D,D2]	*>norep[I,A,A2,B,B2,C,D,D2]	*>norep[I,A,A2,B,B2,C,D,D2]
*>I	*>I	*>I
*clefF4	*clefG2	*clefG2
*k[f#]	*k[f#]	*k[f#]
*M6/8	*M6/8	*M6/8
*MM144	*MM144	*MM144
=1-	=1-	=1-
(8GL	(8gL	mf
8G#	8g#	.
8AJ	8aJ	.
8BL	8bL	.
8c	8cc	.
8c#J)	8cc#J)	.
=2	=2	=2
(8dL	(8ddL	.
8d#	8dd#	.
8eJ	8eeJ	.
8cL	8ccL	.
8B	8b	.
8AJ)	8aJ)	.
=3	=3	=3
(8GL	(8gL	.
8A	8a	.
8BJ	8bJ	.
8AL	8aL	.
8F#	8f#	.
8EJ)	8eJ)	.
=4	=4	=4
4D	4d	.
8r	8r	.
4DD^ 4D^	4d^ 4f#^ 4dd^	.
8r	8r	.
=5!|:	=5!|:	=5!|:
*>A	*>A	*>A
4GG 4G	4.d 4.g 4.b	mf
8D 8G 8B	.	.
4GG 4G	4d 4b 4dd	.
8G 8B 8d	8b 8dd 8bb	.
=6	=6	=6
4C 4c	4b 4ee 4bb	.
8G 8c 8e	8a 8ee 8aa	.
4E 4e	4g 4cc 4gg	.
8C 8c	8e 8g 8ee	.
=7	=7	=7
4BB 4B	4.d 4.g 4.dd	.
8D 8G 8B	.	.
4GG 4G	[4.d [4.g [4.b	.
8D 8G 8B	.	.
=8	=8	=8
8GGL	8d] 8g] (8bL]	.
8r	8b 8dd	.
8D 8G 8BJ	8cc 8eeJ	.
8DL	8b 8ddL	.
8r	8a 8cc	.
8G 8BJ	8g 8bJ)	.
=9	=9	=9
4D#	4.f# 4.a	<
8F# 8A 8c	.	.
4E	4.e 4.g	.
8G 8B	.	.
=10	=10	=10
4F#	4.a 4.cc	.
8A 8c 8d	.	.
4G	4.g 4.b	.
8B 8d	.	.
=11	=11	=11
4C	4.g 4.cc 4.ee	f
8G 8c 8e	.	.
4BB 4B	4g 4b 4dd	.
8GG 8G	8d 8g 8b	.
=12	=12	=12
*	*^	*
8FF# 8F#L	8r	[4.d [4.f# [4.a	.
8r	(8eeL	.	.
8D 8F# 8cJ	8ddJ	.	.
8DD 8DL	8ccL	4.d] 4.f#] 4.a]	>
8r	8b	.	.
8D 8F# 8cJ	8aJ)	.	.
*	*v	*v	*
=13	=13	=13
4GG 4G	4.d 4.g 4.b	mf
8D 8G 8B	.	.
4GG 4G	4d 4b 4dd	.
8G 8B 8d	8b 8dd 8bb	.
=14	=14	=14
4C 4c	4b 4ee 4bb	.
8G 8c 8e	8a 8ee 8aa	.
4E 4e	4g 4cc 4gg	.
8C 8c	8e 8g 8ee	.
=15	=15	=15
4BB 4B	4.d 4.g 4.dd	.
8D 8G 8B	.	.
4EE 4E	4.g# 4.b 4.dd	<
8E 8G# 8B	.	.
=16	=16	=16
8AA 8AL	8r	.
8r	8a (8ccL	.
8E 8A 8cJ	8b 8ddJ	.
8CL	8cc 8eeL	.
8r	8dd 8ff#	.
8E 8A 8cJ	8ee 8ggJ)	.
=17	=17	=17
4CC# 4C#	4.g 4.a# 4.gg	.
8E 8G 8A#	.	.
4DD 4D	4.g 4.b 4.dd	.
8D 8G 8B	.	.
=18	=18	=18
*	*^	*
4EE- 4E-	4.g 4.a# 4.cc#	4.r	.
8G 8A# 8c#	.	.	.
4DD 4D	(4dd	4.g 4.b	>
8G 8B 8d	8een)	.	.
=19	=19	=19	=19
4.DD 4.D	4.b	4r	mf
.	.	8c# 8e 8g	.
4.DD 4.D	4.a	4r	.
.	.	8cn 8d 8f#	.
*	*v	*v	*
=20	=20	=20
*>A1	*>A1	*>A1
8GG 8GL	[4.B [4.d [4.g	.
8E	.	.
8DJ	.	.
8CL	4B] 4d] 4g]	.
8BB	.	.
8AAJ	8d 8f# 8cc	.
=21:|!	=21:|!	=21:|!
*>A2	*>A2	*>A2
4GG 4G	4B 4d 4g	.
8r	8dd	.
4.r	8ddL	.
.	8dd	.
.	8ddJ	.
=22!|:	=22!|:	=22!|:
*>B	*>B	*>B
*	*^	*
8DD 8DL	[4.ff# [4.aa	[4.cc	f
8EE 8E	.	.	.
8EE# 8E#J	.	.	.
8FF# 8F#L	8ff#] 8aaL]	4.cc]	.
8GG 8G	8ee 8gg	.	.
8GG# 8G#J	8dd 8ff#J	.	.
=23	=23	=23	=23
8AA 8AL	[4.cc [4.ee	[4.f#	.
8FF# 8F#	.	.	.
8EE 8EJ	.	.	.
8DD 8DL	8cc] 8eeL]	4.f#]	.
8EE 8E	8b 8dd	.	.
8FF# 8F#J	8a 8ccJ	.	.
=24	=24	=24	=24
4GG 4G	4b	4.g	.
8D 8G 8B	8a 8cc	.	.
8GG 8GL	[4.b [4.dd	[4.g	.
8FF# 8F#	.	.	.
8EE 8EJ	.	.	.
*	*v	*v	*
=25	=25	=25
8DD 8DL	8g] 8b] 8ddL]	.
8r	8g	.
8D 8G 8BJ	8aJ	.
8GG 8GL	8bL	.
8r	8a	.
8D 8G 8BJ	8gJ	.
=26	=26	=26
4FF# 4F#	4f# 4a	.
8D 8F# 8c	8g 8b	.
8AA 8AL	[4.a [4.cc	.
8FF# 8F#	.	.
8EE 8EJ	.	.
=27	=27	=27
8DD 8DL	8a] 8ccL]	.
8r	8a	.
8D 8F# 8cJ	8bJ	.
8FF# 8F#L	8ccL	.
8r	8b	.
8D 8F# 8cJ	8aJ	.
=28	=28	=28
*	*^	*
4GG 4G	4b	4.g	.
8D 8G 8B	8a 8cc	.	.
8BB 8BL	[4.b [4.dd	[4.g	.
8AA 8A	.	.	.
8GG 8GJ	.	.	.
*	*v	*v	*
=29	=29	=29
4D 4d	4g] 4b] 4dd]	.
8r	8dd	.
4.r	8ddL	.
.	8dd	.
.	8ddJ	.
=30	=30	=30
*	*^	*
8DD 8DL	[4.ff# [4.aa	[4.cc	.
8EE 8E	.	.	.
8EE# 8E#J	.	.	.
8FF# 8F#L	8ff#] (8aaL]	4.cc]	.
8GG 8G	8ee 8gg	.	.
8GG# 8G#J	8dd 8ff#J)	.	.
=31	=31	=31	=31
8AA 8AL	[4.cc [4.ee	[4.f#	.
8FF# 8F#	.	.	.
8EE 8EJ	.	.	.
8DD 8DL	8cc] 8eeL]	4.f#]	.
8EE 8E	8b 8dd	.	.
8FF# 8F#J	8a 8ccJ	.	.
=32	=32	=32	=32
4GG 4G	4b	4.g	<
8D 8G 8B	8a 8cc	.	.
8FFn 8FnL	4.b 4.dd	4.g	.
8EE 8E	.	.	.
8DD 8DJ	.	.	.
=33	=33	=33	=33
8CC 8CL	[4.ee	[4.g [4.cc	f
8E 8G 8c	.	.	.
8E 8G 8cJ	.	.	.
8E 8G 8c	8eeL]	8g] 8cc]	.
8r	8r	8r	.
8r	8eeJ	8r	.
=34	=34	=34	=34
8CC# 8C#L	[4.ee-	[4.g [4.a#	.
8G 8A# 8c#	.	.	.
8G 8A# 8c#J	.	.	.
8G 8A# 8c#	8ee-L]	8g] 8a#]	.
8r	8r	8r	.
8r	8ddJ	8r	.
=35	=35	=35	=35
8EE- 8E-L	[4.cc#	[4.g [4.a#	.
8G 8A# 8c#	.	.	.
8G 8A# 8c#J	.	.	.
8G 8A# 8c#	8cc#L]	8g] 8a#]	.
8r	8r	8r	.
8r	8a#J	8r	.
*	*v	*v	*
=36	=36	=36
8DD 8DL	8bL	.
8r	8r	.
8G 8B 8dJ	8ddJ	.
8DD 8DL	(8ccL	.
8r	8e	.
8A 8c 8dJ	8f#J)	.
=37	=37	=37
*>B1	*>B1	*>B1
4G 4B 4d	4g	.
8r	8dd	.
4.r	8ddL	.
.	8dd	.
.	8ddJ	.
=38:|!	=38:|!	=38:|!
*>B2	*>B2	*>B2
4G 4B 4d	4g	.
8r	8r	.
4GG 4G	4g 4b 4dd 4gg	.
8r	8r	.
=39	=39	=39
*>C	*>C	*>C
*k[]	*k[]	*k[]
(8CL	4.e 4.g 4.cc 4.ee	p
8E	.	.
8GJ	.	.
8cL	4.g 4.cc 4.ee 4.gg	.
8G	.	.
8EJ)	.	.
=40	=40	=40
(8CL	4.cc 4.ee 4.gg 4.ccc	.
8E	.	.
8GJ	.	.
8cL	4.g 4.cc 4.ee 4.gg	.
8G	.	.
8EJ)	.	.
=41	=41	=41
(8CL	2.a 2.cc 2.dd# 2.ff# 2.aa	.
8D#	.	.
8F#J	.	.
8AL	.	.
8c	.	.
8d#J)	.	.
=42	=42	=42
(8eL	2.g 2.cc 2.ee 2.gg	.
8d	.	.
8cJ	.	.
8AL	.	.
8G	.	.
8EJ)	.	.
=43	=43	=43
(8CL	4.e 4.g 4.cc 4.ee	.
8E	.	.
8GJ	.	.
8cL	4.cc 4.ee 4.gg 4.ccc	.
8G	.	.
8EJ)	.	.
=44	=44	=44
8CL	4.g 4.cc 4.ee 4.gg	.
8G	.	.
8cJ	.	.
8GL	4.e 4.g 4.cc 4.ee	.
8E	.	.
8CJ	.	.
=45	=45	=45
*	*^	*
(8AA-L	[2.dd	2.f 2.a- 2.cc	<
8BB	.	.	.
8CJ	.	.	.
8DL	.	.	.
8F	.	.	.
8A-J)	.	.	.
=46	=46	=46	=46
(8GL	4.dd]	4.f 4.g 4.b	.
8D	.	.	.
8BBJ	.	.	.
8GGL	4.r	4.f 4.b 4.dd 4.gg	>
8AA	.	.	.
8BBJ)	.	.	.
*	*v	*v	*
=47	=47	=47
(8CL	4.e 4.g 4.cc 4.ee	p
8E	.	.
8GJ	.	.
8cL	4.g 4.cc 4.ee 4.gg	.
8G	.	.
8EJ)	.	.
=48	=48	=48
(8CL	4.cc 4.ee 4.gg 4.ccc	<
8G	.	.
8cJ	.	.
8BL	4.dd 4.gg# 4.bb 4.ddd	.
8G#	.	.
8EJ)	.	.
=49	=49	=49
(8AL	2.cc 2.ee 2.aa 2.ccc	mf
8E	.	.
8CJ	.	.
8AAL	.	.
8GG#	.	.
8AAJ)	.	.
=50	=50	=50
(8FF#L	2.a 2.cc 2.dd# 2.ff# 2.aa	.
8AA	.	.
8BBJ	.	.
8CL	.	.
8D#	.	.
(8F#J)	.	.
=51	=51	=51
8GL	4.g 4.cc 4.ee 4.gg	.
8E	.	.
8GGJ)	.	.
(8AL	4.e 4.a 4.cc 4.ee	.
8E	.	.
8AAJ)	.	.
=52	=52	=52
*	*^	*
(8DL	4.f# 4.a 4.cc	4.r	.
8E	.	.	.
8F#J	.	.	.
8GL	4.dd	4.fn 4.g 4.b	.
8A	.	.	.
8BJ)	.	.	.
*	*v	*v	*
=53	=53	=53
(8cL	[2.e [2.g [2.cc	.
8G#	.	.
8AJ	.	.
8F#L	.	.
8Gn	.	.
8EJ)	.	.
=54	=54	=54
4C	4e] 4g] 4cc]	.
8r	8r	.
4CC 4C	4c 4cc	.
8BBB 8BB	8B 8b	.
=55!|:	=55!|:	=55!|:
*>D	*>D	*>D
*^	*	*
4.r	4BBB- 4BB-	4B- 4b-	f
.	8GGG- 8GG-	8G- 8g-	.
[4.E- [4.e-	[4.EEE- [4.EE-	4.r	.
=56	=56	=56	=56
4E-] 4e-]	4EEE-] 4EE-]	2.r	.
8En 8en	8EEEn 8EEn	.	.
4.F 4.f	4.FFF 4.FF	.	.
*v	*v	*	*
=57	=57	=57
[4.CC- [4.C-	[4.c- [4.cc-	.
4CC-] 4C-]	4c-] 4cc-]	.
8CC- 8C-	8c- 8cc-	.
=58	=58	=58
4BBB- 4BB-	4B- 4b-	.
8r	8r	.
4.r	4.r	.
=59	=59	=59
(8AAL	8a 8cc 8ee- 8gg-L	.
8C	8a 8cc 8ee- 8gg-	.
8E-J	8a 8cc 8ee- 8gg-J	.
8G-L	8a 8cc 8ee- 8gg-L	.
8A	8a 8cc 8ee- 8gg-	.
8cJ)	8a 8cc 8ee- 8gg-J	.
=60	=60	=60
(8B-L	8b- 8dd- 8ffL	.
8En	8b- 8dd- 8ff	.
8FJ	8b- 8dd- 8ffJ	.
8D-L	8b- 8dd- 8ffL	.
8BB-	8b- 8dd- 8ff	.
8FFJ)	8b- 8dd- 8ffJ	.
=61	=61	=61
(8AAL	8a 8cc 8ee- 8gg-L	.
8C	8a 8cc 8ee- 8gg-	.
8E-J	8a 8cc 8ee- 8gg-J	.
8G-L	8a 8cc 8ee- 8gg-L	.
8A	8a 8cc 8ee- 8gg-	.
8cJ	8a 8cc 8ee- 8gg-J	.
=62	=62	=62
4B-)	4b- 4dd- 4ff	.
8r	8r	.
4BBB- 4BB-	4B- 4b-	.
8AAA 8AA	8A 8a	.
=63	=63	=63
*^	*	*
4.r	4AAA- 4AA-	4A- 4a-	.
.	8FFF- 8FF-	8F- 8f-	.
[4.D- [4.d-	[4.DDD- [4.DD-	4.r	.
=64	=64	=64	=64
4D-] 4d-]	4DDD-] 4DD-]	2.r	.
8Dn 8dn	8DDDn 8DDn	.	.
4.E- 4.e-	4.EEE- 4.EE-	.	.
*v	*v	*	*
=65	=65	=65
[4.BBB-- [4.BB--	[4.B-- ([4.b--	.
4BBB--] 4BB--]	4B--] 4b--])	.
8BBB-- 8BB--	8B-- 8b--	.
=66	=66	=66
4AAA- 4AA-	4A- 4a-	.
8r	8r	.
4.r	4.r	.
=67	=67	=67
(8GGL	8g 8b- 8dd- 8ff-L	.
8BB-	8g 8b- 8dd- 8ff-	.
8D-J	8g 8b- 8dd- 8ff-J	.
8F-L	8g 8b- 8dd- 8ff-L	.
8G	8g 8b- 8dd- 8ff-	.
8B-J)	8g 8b- 8dd- 8ff-J	.
=68	=68	=68
(8A-L	8a- 8cc- 8ee-L	.
8Dn	8a- 8cc- 8ee-	.
8E-J	8a- 8cc- 8ee-J	.
8C-L	8a- 8cc- 8ee-L	.
8AA-	8a- 8cc- 8ee-	.
8EE-J)	8a- 8cc- 8ee-J	.
=69	=69	=69
(8GGL	8g 8b- 8dd- 8ff-L	.
8BB-	8g 8b- 8dd- 8ff-	.
8D-J	8g 8b- 8dd- 8ff-J	.
8F-L	8g 8b- 8dd- 8ff-L	.
8G	8g 8b- 8dd- 8ff-	.
8B-J)	8g 8b- 8dd- 8ff-J	.
=70	=70	=70
4A-	4a- 4cc- 4ee-	>
8r	8e-	.
4.r	4a-	.
.	8b-	.
=71	=71	=71
8AAA- 8AA-L	8d# 8f# 8ccnL	mp
8AAA- 8AA-	8d# 8f# 8cc	.
8AAA- 8AA-J	8d# 8f# 8ccJ	.
8AAA- 8AA-L	8d# 8f# 8ccL	.
8AAA- 8AA-	8d# 8f# 8cc	.
8AAA- 8AA-J	8d# 8f# 8ccJ	.
=72	=72	=72
8GGG 8GGL	8e 8g 8ccL	.
8GGG 8GG	8e 8g 8cc	.
8GGG 8GGJ	8e 8g 8ccJ	.
8GGG 8GGL	8e 8g 8ccL	.
8GGG 8GG	8e 8g 8cc	.
8GGG 8GGJ	8e 8g 8ccJ	.
=73	=73	=73
8AAA- 8AA-L	8dn 8fn 8ccL	.
8AAA- 8AA-	8d 8f 8cc	.
8AAA- 8AA-J	8d 8f 8ccJ	.
8AAA- 8AA-L	8d 8f 8ccL	.
8AAA- 8AA-	8d 8f 8cc	.
8AAA- 8AA-J	8d 8f 8ccJ	.
=74	=74	=74
4GGG 4GG	4d 4f 4b	.
8r	8r	.
4GGG 4GG	4f 4b 4dd 4gg	.
8r	8r	.
=75	=75	=75
(8CL	4.e 4.g 4.cc 4.ee	f
8E	.	.
8GJ	.	.
8cL	4.g 4.cc 4.ee 4.gg	.
8G	.	.
8EJ)	.	.
=76	=76	=76
(8CL	4.cc 4.ee 4.gg 4.ccc	.
8E	.	.
8GJ	.	.
8cL	4.g 4.cc 4.ee 4.gg	.
8G	.	.
8EJ)	.	.
=77	=77	=77
(8CL	2.a 2.cc 2.dd# 2.ff# 2.aa	.
8D#	.	.
8F#J	.	.
8AL	.	.
8c	.	.
8d#J)	.	.
=78	=78	=78
(8eL	2.g 2.cc 2.ee 2.gg	.
8d	.	.
8cJ	.	.
8AL	.	.
8G	.	.
8EJ)	.	.
=79	=79	=79
(8CL	4.e 4.g 4.cc 4.ee	.
8E	.	.
8GJ	.	.
8cL	4.cc 4.ee 4.gg 4.ccc	.
8G	.	.
8EJ)	.	.
=80	=80	=80
(8CL	4.g 4.cc 4.ee 4.gg	.
8G	.	.
8cJ	.	.
8GL	4.e 4.g 4.cc 4.ee	.
8E	.	.
8CJ)	.	.
=81	=81	=81
*	*^	*
(8AA-L	[2.dd	2.f 2.a- 2.cc	.
8BB	.	.	.
8CJ	.	.	.
8DL	.	.	.
8F	.	.	.
8A-J)	.	.	.
=82	=82	=82	=82
(8GL	4.dd]	4.f 4.g 4.b	.
8D	.	.	.
8BBJ	.	.	.
8GGL	4.r	4.f 4.b 4.dd 4.gg	.
8AA	.	.	.
8BBJ)	.	.	.
*	*v	*v	*
=83	=83	=83
(8CL	4.e 4.g 4.cc 4.ee	<
8E	.	.
8GJ	.	.
8cL	4.g 4.cc 4.ee 4.gg	.
8G	.	.
8EJ)	.	.
=84	=84	=84
(8CL	4.cc 4.ee 4.gg 4.ccc	.
8G	.	.
8cJ	.	.
8BL	4.dd 4.gg# 4.bb 4.ddd	.
8G#	.	.
8EJ)	.	.
=85	=85	=85
(8AL	2.cc 2.ee 2.aa 2.ccc	ff
8E	.	.
8CJ	.	.
8AAL	.	.
8GG#	.	.
8AAJ)	.	.
=86	=86	=86
(8FF#L	2.a 2.cc 2.dd# 2.ff# 2.aa	.
8AA	.	.
8BBJ	.	.
8CL	.	.
8D#	.	.
8F#J)	.	.
=87	=87	=87
(8GL	4.g 4.cc 4.ee 4.gg	.
8E	.	.
8GGJ)	.	.
(8AL	4.e 4.a 4.cc 4.ee	.
8E	.	.
8AAJ)	.	.
=88	=88	=88
(8DL	4.f# 4.a 4.cc	.
8E	.	.
8F#J	.	.
8GL	4.fn 4.g 4.b 4.dd	.
8A	.	.
8BJ)	.	.
=89	=89	=89
*>D1	*>D1	*>D1
(8cL	[2.e [2.g [2.cc	.
8G#	.	.
8AJ	.	.
8F#L	.	.
8Gn	.	.
8EJ)	.	.
=90	=90	=90
4C	4e] 4g] 4cc]	.
8r	8r	.
4CC 4C	4c 4cc	.
8BBB 8BB	8B 8b	.
=91:|!	=91:|!	=91:|!
*>D2	*>D2	*>D2
(8cL	[2.e [2.g [2.cc	.
8G#	.	.
8AJ	.	.
8F#L	.	.
8Gn	.	.
8EJ)	.	.
=92	=92	=92
4C	4e] 4g] 4cc]	.
8r	8r	.
8CC 8C	8cc 8ee 8gg 8ccc	.
8r	8r	.
8r	8r	.
==	==	==
*-	*-	*-
!!!ENC: Craig Stuart Sapp
!!!END: 2005/02/04/
